!! 00048] TT[KA
!! NN
!!!OTL: Cui dong cui
!!!ARE: Asia, China,Hubei, Qianjiang
!! Ethnic Group: Han
!! I, 465
!!!SCT: C0118
!!!YEM: Copyright 1995, estate of Helmut Schaffrath.
**kern
*ICvox
*Ivox
*M2/4
*k[f#c#]
*D:
{8dd
8a
8dd
16dd
16dd
=1
8.ff#
16aa
4dd}
=2
{16a
16a
16f#
16a
16a
16dd
16f#
16a
=3
4a
4dd}
=4
{16dd
16dd
16b
16a
16dd
16dd
16dd
16dd
=5
8dd
16ff#
16aa
4dd}
=6
{16f#
16a
16a
16a
16f#
16a
16a
16f#
=7
8.d
16f#
4a}
=8
{8.ff#
16dd
8.ee
16dd
=9
8.dd
16ff#
4a}
=10
{8.ff#
16dd
8.ee
16dd
=11
8.dd
16ff#
4a}
=12
{16dd
16ff#
8a
16dd
16ff#
8a
=13
8f#
16a
16dd
4a}
=14
{8a
4dd
16a
16f#
=15
8.dd
16ff#
4a}
=16
{16a
16dd
8f#
8a
16a
16f#
=17
8.d
16f#
4a}
==
!!!AGN: Arbeitslied, HAOZI.Da mai ge. Arbeit bei Weizenmaehe
!! Vereinzelt Verzierungen.
!!!ONB: ESAC (Essen Associative Code) Database: CHINA_066
!!!AMT: simple duple
!!!AIN: vox
!!!EED: Helmut Schaffrath
!!!EEV: 1.0
*-
